src/images/svg/symbols/solana.svg

<svg width="33" height="32" viewBox="0 0 33 32" fill="none" xmlns="http://www.w3.org/2000/svg">
<path d="M0.5 16C0.5 7.16344 7.66344 0 16.5 0C25.3366 0 32.5 7.16344 32.5 16C32.5 24.8366 25.3366 32 16.5 32C7.66344 32 0.5 24.8366 0.5 16Z" fill="black"/>
<path fill-rule="evenodd" clip-rule="evenodd" d="M10.4244 9.17297C10.5376 9.06434 10.6869 9.00098 10.8408 9.00098H25.2049C25.4674 9.00098 25.5986 9.3178 25.4131 9.50337L22.5756 12.3412C22.467 12.4498 22.3176 12.5132 22.1592 12.5132H7.79507C7.53259 12.5132 7.40135 12.1964 7.5869 12.0108L10.4244 9.17297ZM10.4244 19.7688C10.533 19.6602 10.6824 19.5968 10.8408 19.5968H25.2049C25.4674 19.5968 25.5987 19.9137 25.4131 20.0992L22.5756 22.9371C22.467 23.0457 22.3176 23.1091 22.1592 23.1091H7.79508C7.53259 23.1091 7.40135 22.7922 7.5869 22.6067L10.4244 19.7688ZM22.1592 14.2652C22.3176 14.2652 22.467 14.3286 22.5756 14.4372L25.4131 17.275C25.5987 17.4606 25.4674 17.7774 25.2049 17.7774H10.8408C10.6824 17.7774 10.533 17.7141 10.4244 17.6054L7.5869 14.7676C7.40135 14.582 7.53259 14.2652 7.79508 14.2652H22.1592Z" fill="url(#paint0_linear_9924_57841)"/>
<defs>
<linearGradient id="paint0_linear_9924_57841" x1="21.6455" y1="6.16359" x2="11.7022" y2="25.2064" gradientUnits="userSpaceOnUse">
<stop stop-color="#00FFA3"/>
<stop offset="1" stop-color="#DC1FFF"/>
</linearGradient>
</defs>
</svg>

<svg width="33" height="32" fill="none" xmlns="http://www.w3.org/2000/svg"><path d="M.5 16c0-8.837 7.163-16 16-16s16 7.163 16 16-7.163 16-16 16-16-7.163-16-16Z" fill="#000"/><path fill-rule="evenodd" clip-rule="evenodd" d="M10.424 9.173a.605.605 0 0 1 .417-.172h14.364c.262 0 .394.317.208.502l-2.837 2.838a.59.59 0 0 1-.417.172H7.795a.294.294 0 0 1-.208-.502l2.837-2.838Zm0 10.596a.59.59 0 0 1 .417-.172h14.364c.262 0 .394.317.208.502l-2.837 2.838a.59.59 0 0 1-.417.172H7.795a.294.294 0 0 1-.208-.502l2.837-2.838Zm11.735-5.504a.59.59 0 0 1 .417.172l2.837 2.838a.294.294 0 0 1-.208.502H10.84a.589.589 0 0 1-.417-.172l-2.837-2.837a.294.294 0 0 1 .208-.503H22.16Z" fill="url(#a)"/><defs><linearGradient id="a" x1="21.645" y1="6.164" x2="11.702" y2="25.206" gradientUnits="userSpaceOnUse"><stop stop-color="#00FFA3"/><stop offset="1" stop-color="#DC1FFF"/></linearGradient></defs></svg>
